X:1
T:539 - Brilhando
T:Letra: Nellie Talbot
T:Trad.: SalomÃ£o Ferraz
T:MÃºsica: Edwin Othello Excell (1851-1921)
M:6/8
L:1/8
Q:1/4=100
K:Fmaj
V:1
"F"CDE FDF | "C7"E3 c2D | C2B A2G | "F"A3- A2z | CDE FDF | "C7"E3 c2D | C2B A2G | "F"F3 z2 || C | "F"F3 A2c | "C7"c3 E3 | cBG EGB | ("F"d3 c2)C | F3 A2c | "C7"c3 E3 | cEG BAG | "F"F3- F2z |]
w:1.~Ve-jo no cÃ©u res-plen-den-te Do sol a cla-ra luz;_ Que-ro vi-ver tÃ£o so-men-te Bri-lhan-do por Je-sus.     Bri-lhan-do, bri-lhan-do,    Que-ro bri-lhar co-moa luz!_    Bri-lhan-do, bri-lhan-do,    Sem-pre bri-lhar por Je-sus!_
w:2.~Eu que-roem tu-doe-xal-tÃ¡-lo, Naes-co-lae noes-tu-dar;_ Nun-ca tam-bÃ©m ol-vi-dÃ¡-lo Em ca-sae no brin-car.
w:3.~Com um vi-ver di-li-gen-te, As-sim me quer Je-sus;_ Sem-pre com ros-to con-ten-te, Bri-lhan-do co-moa luz.
w:4.~Do fei-oe tris-te pe-ca-do, Se-nhor, vem me guar-dar;_ Sem-pre por ti am-pa-ra-do De-se-jo,Ã³ Deus, an-dar.
w:5.~Sees-ta Ã©a tu-a von-ta-de, Bri-lhan-do vi-ve-rei,_ E pe-la tu-a bon-da-de Ao lin-do cÃ©u i-rei.           				
W:
W:
W:1. Vejo no cÃ©u resplendente
W:Do sol a clara luz;
W:Quero viver tÃ£o somente
W:Brilhando por Jesus.
W:
W:(Estribilho)
W:Brilhando, brilhando,
W:Quero brilhar como a luz!
W:Brilhando, brilhando,
W:Sempre brilhar por Jesus!
W:
W:2. Eu quero em tudo exaltÃ¡-lo,
W:Na escola e no estudar;
W:Nunca tambÃ©m olvidÃ¡-lo
W:Em casa e no brincar.
W:
W:
W:
W:3. Com um viver diligente,
W:Assim me quer Jesus;
W:Sempre com rosto contente,
W:Brilhando como a luz.
W:
W:4. Do feio e triste pecado,
W:Senhor, vem-me guardar;
W:Sempre por ti amparado
W:Desejo, Ã³ Deus, andar.
W:
W:5. Se esta Ã© a tua vontade,
W:Brilhando viverei,
W:E pela tua bondade
W:Ao lindo cÃ©u irei.
W:
W:

